src/assets/icons/graduation-cap.svg

<svg width="14" height="14" viewBox="0 0 14 14" fill="none" xmlns="http://www.w3.org/2000/svg">
<g id="graduation-cap">
<g clip-path="url(#clip0_295_4712)">
<path id="Vector" fill-rule="evenodd" clip-rule="evenodd" d="M6.59007 0.30463C6.85 0.183775 7.15 0.183776 7.40993 0.30463L13.4376 3.10725C14.2075 3.4652 14.1809 4.56872 13.3948 4.88924L13.0282 5.03869V8.00623C13.0282 8.37518 12.8771 8.75518 12.5548 9.01171C12.2415 9.26114 11.6669 9.67467 10.8777 10.0573V13.2027C10.8777 13.5249 10.6165 13.7861 10.2943 13.7861C9.97216 13.7861 9.71097 13.5249 9.71097 13.2027V10.5291C8.92622 10.7858 8.01434 10.9659 7 10.9659C4.12489 10.9659 2.07386 9.3932 1.39801 8.79815C1.10709 8.54201 0.971808 8.18213 0.971808 7.83341V5.03869L0.605236 4.88924C-0.180944 4.56872 -0.207484 3.4652 0.562369 3.10725L6.59007 0.30463ZM2.13856 5.57475L6.5812 7.71308C6.84358 7.83937 7.14876 7.84141 7.4128 7.71864L9.71097 6.65009V9.29165C8.95278 9.58056 8.03649 9.79917 7 9.79917C4.54484 9.79917 2.7629 8.44533 2.16902 7.92245C2.15813 7.91287 2.13856 7.88681 2.13856 7.83341V5.57475ZM10.8777 8.73869C11.3062 8.49315 11.6287 8.2576 11.8282 8.09885C11.8396 8.08975 11.8614 8.0638 11.8614 8.00623V5.59585L10.8777 6.09399V8.73869ZM10.2987 5.0794L12.2025 4.11532L12.5413 3.9772L7 1.40073L1.45869 3.9772L1.79203 4.1131L7.00431 6.62187L8.97687 5.70472L6.72961 4.52923C6.44412 4.3799 6.33374 4.0274 6.48307 3.74191C6.63241 3.45642 6.9849 3.34604 7.27039 3.49538L10.2987 5.0794Z" fill="black"/>
</g>
</g>
<defs>
<clipPath id="clip0_295_4712">
<rect width="14" height="14" fill="white"/>
</clipPath>
</defs>
</svg>

<svg xmlns="http://www.w3.org/2000/svg" fill="none" viewBox="0 0 14 14"><g clip-path="url(#a)"><path fill="#000" fill-rule="evenodd" d="M6.59.305c.26-.121.56-.121.82 0l6.028 2.802c.77.358.743 1.462-.043 1.782l-.367.15v2.967c0 .37-.15.75-.473 1.006-.313.25-.888.663-1.677 1.045v3.146a.583.583 0 0 1-1.167 0v-2.674A8.7 8.7 0 0 1 7 10.966c-2.875 0-4.926-1.573-5.602-2.168a1.28 1.28 0 0 1-.426-.965V5.04l-.367-.15C-.18 4.57-.207 3.465.562 3.107zM2.14 5.575 6.58 7.713a.97.97 0 0 0 .832.006L9.71 6.65v2.642A7.6 7.6 0 0 1 7 9.799c-2.455 0-4.237-1.354-4.831-1.877-.01-.01-.03-.035-.03-.089zm8.739 3.164c.428-.246.75-.481.95-.64.012-.01.033-.035.033-.093v-2.41l-.983.498zm-.58-3.66 1.905-.964.338-.138L7 1.401 1.459 3.977l.333.136 5.212 2.509 1.973-.917L6.73 4.529a.583.583 0 0 1 .54-1.034z" clip-rule="evenodd"/></g><defs><clipPath id="a"><path fill="#fff" d="M0 0h14v14H0z"/></clipPath></defs></svg>
